X: 42523
T: Wheels Of The World, The
R: jig
M: 6/8
K: Gmixolydian
|:DGG GAG FGA|B2B GAB c2A|DGG GAG FGA|Bcd cAF G2E:|
|:ded cAG FAD|ded cAB c2B|ded cAG FAD|ded cAF G2B:|

